phone-refresh.svg

<svg fill="currentColor" viewBox="0 0 24 24"><path d="M6.62 10.79c1.44 2.83 3.76 5.15 6.59 6.59l2.2-2.2c.28-.28.67-.36 1.02-.25 1.12.37 2.32.57 3.57.57.55 0 1 .45 1 1V20c0 .55-.45 1-1 1-9.39 0-17-7.61-17-17 0-.55.45-1 1-1h3.5c.55 0 1 .45 1 1 0 1.25.2 2.45.57 3.57.11.35.03.74-.25 1.02zM17 7l1.77-1.77A2.5 2.5 0 1 0 19 8.5h1.71A3.99 3.99 0 0 1 17 11c-2.21 0-4-1.79-4-4s1.79-4 4-4c1.11 0 2.11.45 2.83 1.17L21 3v4z"/></svg>

<svg  viewBox="0 0 24 24" fill="currentColor"><path  d="M6.62 10.79C8.06 13.62 10.38 15.94 13.21 17.38L15.41 15.18C15.69 14.9 16.08 14.82 16.43 14.93C17.55 15.3 18.75 15.5 20 15.5C20.55 15.5 21 15.95 21 16.5V20C21 20.55 20.55 21 20 21C10.61 21 3 13.39 3 4C3 3.45 3.45 3 4 3H7.5C8.05 3 8.5 3.45 8.5 4C8.5 5.25 8.7 6.45 9.07 7.57C9.18 7.92 9.1 8.31 8.82 8.59L6.62 10.79M17 7L18.77 5.23C18.32 4.78 17.69 4.5 17 4.5C15.62 4.5 14.5 5.62 14.5 7S15.62 9.5 17 9.5C17.82 9.5 18.54 9.11 19 8.5H20.71C20.12 9.97 18.68 11 17 11C14.79 11 13 9.21 13 7S14.79 3 17 3C18.11 3 19.11 3.45 19.83 4.17L21 3V7H17Z"/></svg>
